packages/web/public/tokens/polygon.usdc.svg

<svg fill="none" height="500" viewBox="0 0 500 500" width="500" xmlns="http://www.w3.org/2000/svg" xmlns:xlink="http://www.w3.org/1999/xlink"><clipPath id="a"><rect height="500" rx="250" width="500"/></clipPath><clipPath id="b"><path d="m0 0h500v500h-500z"/></clipPath><clipPath id="c"><path d="m0 300h200v200h-200z"/></clipPath><mask id="d" height="115" maskUnits="userSpaceOnUse" width="132" x="33" y="343"><path d="m164.807 343.324h-130.8281v114.647h130.8281z" fill="#fff"/></mask><g clip-path="url(#a)"><g clip-path="url(#b)"><path d="m250 500c138.542 0 250-111.458 250-250s-111.458-250-250-250-250 111.458-250 250 111.458 250 250 250z" fill="#2775ca"/><g fill="#fff"><path d="m318.75 289.583c0-36.458-21.875-48.958-65.625-54.165-31.25-4.168-37.5-12.5-37.5-27.085s10.417-23.958 31.25-23.958c18.75 0 29.167 6.25 34.375 21.875 1.042 3.125 4.167 5.208 7.292 5.208h16.665c4.168 0 7.293-3.125 7.293-7.29v-1.043c-4.168-22.917-22.918-40.625-46.875-42.707v-25c0-4.168-3.125-7.293-8.333-8.335h-15.625c-4.167 0-7.292 3.125-8.335 8.335v23.957c-31.25 4.168-51.04 25-51.04 51.043 0 34.375 20.833 47.915 64.583 53.125 29.167 5.207 38.542 11.457 38.542 28.125 0 16.667-14.585 28.125-34.375 28.125-27.085 0-36.46-11.46-39.585-27.085-1.04-4.165-4.165-6.25-7.29-6.25h-17.71c-4.165 0-7.29 3.125-7.29 7.292v1.043c4.165 26.04 20.833 44.79 55.208 50v25c0 4.165 3.125 7.29 8.332 8.332h15.625c4.168 0 7.293-3.125 8.335-8.332v-25c31.25-5.21 52.083-27.085 52.083-55.21z"/><path d="m196.875 398.957c-81.25-29.165-122.9175-119.79-92.708-200 15.625-43.75 50-77.082 92.708-92.707 4.167-2.083 6.25-5.208 6.25-10.4175v-14.5825c0-4.1675-2.083-7.2925-6.25-8.3325-1.043 0-3.125 0-4.168 1.04-98.957 31.2495-153.1245 136.4595-121.8745 235.4175 18.75 58.332 63.5425 103.125 121.8745 121.875 4.168 2.082 8.335 0 9.375-4.168 1.043-1.04 1.043-2.082 1.043-4.165v-14.585c0-3.125-3.125-7.29-6.25-9.375zm110.417-324.9995c-4.167-2.0825-8.335 0-9.375 4.1675-1.042 1.0425-1.042 2.0825-1.042 4.1675v14.5825c0 4.167 3.125 8.332 6.25 10.417 81.25 29.165 122.917 119.79 92.707 200-15.625 43.75-50 77.083-92.707 92.708-4.168 2.082-6.25 5.207-6.25 10.417v14.583c0 4.167 2.082 7.292 6.25 8.332 1.042 0 3.125 0 4.167-1.04 98.958-31.25 153.126-136.46 121.876-235.417-18.75-59.375-64.586-104.1675-121.876-122.9175z"/></g></g></g><g clip-path="url(#c)"><path d="m100.081 300.16c55.143 0 99.839 44.687 99.839 99.82s-44.696 99.78-99.8 99.78c-55.1439 0-99.800577-44.687-99.800577-99.78-.039276-55.133 44.656677-99.82 99.761577-99.82z" fill="#8247e5"/><g mask="url(#d)"><path d="m132.797 378.24c-2.395-1.374-5.459-1.374-8.169 0l-19.088 11.312-12.9611 7.187-18.7349 11.273c-2.3956 1.375-5.4591 1.375-8.1693 0l-14.6499-8.916c-2.396-1.374-4.0846-4.124-4.0846-7.187v-17.125c0-2.749 1.3744-5.459 4.0846-7.187l14.6499-8.563c2.396-1.374 5.4595-1.374 8.1693 0l14.6503 8.916c2.3956 1.375 4.0846 4.124 4.0846 7.188v11.311l12.9611-7.541v-11.626c0-2.749-1.375-5.459-4.085-7.187l-27.2573-16.103c-2.3961-1.375-5.4595-1.375-8.1693 0l-27.9254 16.456c-2.7101 1.375-4.0848 4.125-4.0848 6.834v32.168c0 2.749 1.3747 5.459 4.0848 7.187l27.6108 16.103c2.396 1.375 5.4595 1.375 8.1697 0l18.7345-10.958 12.961-7.541 18.735-10.958c2.396-1.374 5.459-1.374 8.169 0l14.65 8.563c2.396 1.374 4.085 4.123 4.085 7.187v17.124c0 2.75-1.375 5.46-4.085 7.188l-14.296 8.562c-2.396 1.375-5.46 1.375-8.17 0l-14.689-8.562c-2.396-1.375-4.085-4.124-4.085-7.188v-10.958l-12.9608 7.541v11.312c0 2.749 1.3748 5.459 4.0846 7.187l27.6112 16.104c2.396 1.374 5.459 1.374 8.169 0l27.611-16.104c2.396-1.374 4.085-4.123 4.085-7.187v-32.521c0-2.749-1.374-5.459-4.085-7.187z" fill="#fff"/></g></g><circle cx="100" cy="400" r="97.5" stroke="#000" stroke-width="5"/></svg>

<svg width="500" height="500" viewBox="0 0 500 500" fill="none" xmlns="http://www.w3.org/2000/svg">
<g clip-path="url(#clip0_406_620)">
<g clip-path="url(#clip1_406_620)">
<path d="M250 500C388.542 500 500 388.542 500 250C500 111.458 388.542 0 250 0C111.458 0 0 111.458 0 250C0 388.542 111.458 500 250 500Z" fill="#2775CA"/>
<path d="M318.75 289.583C318.75 253.125 296.875 240.625 253.125 235.418C221.875 231.25 215.625 222.918 215.625 208.333C215.625 193.748 226.042 184.375 246.875 184.375C265.625 184.375 276.042 190.625 281.25 206.25C282.292 209.375 285.417 211.458 288.542 211.458H305.207C309.375 211.458 312.5 208.333 312.5 204.168V203.125C308.332 180.208 289.582 162.5 265.625 160.418V135.418C265.625 131.25 262.5 128.125 257.292 127.083H241.667C237.5 127.083 234.375 130.208 233.332 135.418V159.375C202.082 163.543 182.292 184.375 182.292 210.418C182.292 244.793 203.125 258.333 246.875 263.543C276.042 268.75 285.417 275 285.417 291.668C285.417 308.335 270.832 319.793 251.042 319.793C223.957 319.793 214.582 308.333 211.457 292.708C210.417 288.543 207.292 286.458 204.167 286.458H186.457C182.292 286.458 179.167 289.583 179.167 293.75V294.793C183.332 320.833 200 339.583 234.375 344.793V369.793C234.375 373.958 237.5 377.083 242.707 378.125H258.332C262.5 378.125 265.625 375 266.667 369.793V344.793C297.917 339.583 318.75 317.708 318.75 289.583Z" fill="white"/>
<path d="M196.875 398.957C115.625 369.792 73.9575 279.167 104.167 198.957C119.792 155.207 154.167 121.875 196.875 106.25C201.042 104.167 203.125 101.042 203.125 95.8325V81.25C203.125 77.0825 201.042 73.9575 196.875 72.9175C195.832 72.9175 193.75 72.9175 192.707 73.9575C93.75 105.207 39.5825 210.417 70.8325 309.375C89.5825 367.707 134.375 412.5 192.707 431.25C196.875 433.332 201.042 431.25 202.082 427.082C203.125 426.042 203.125 425 203.125 422.917V408.332C203.125 405.207 200 401.042 196.875 398.957ZM307.292 73.9575C303.125 71.875 298.957 73.9575 297.917 78.125C296.875 79.1675 296.875 80.2075 296.875 82.2925V96.875C296.875 101.042 300 105.207 303.125 107.292C384.375 136.457 426.042 227.082 395.832 307.292C380.207 351.042 345.832 384.375 303.125 400C298.957 402.082 296.875 405.207 296.875 410.417V425C296.875 429.167 298.957 432.292 303.125 433.332C304.167 433.332 306.25 433.332 307.292 432.292C406.25 401.042 460.418 295.832 429.168 196.875C410.418 137.5 364.582 92.7075 307.292 73.9575Z" fill="white"/>
</g>
</g>
<g clip-path="url(#clip2_406_620)">
<path d="M100.081 300.16C155.224 300.16 199.92 344.847 199.92 399.98C199.92 455.113 155.224 499.76 100.12 499.76C44.9761 499.76 0.319423 455.073 0.319423 399.98C0.280147 344.847 44.9761 300.16 100.081 300.16Z" fill="#8247E5"/>
<mask id="mask0_406_620" style="mask-type:luminance" maskUnits="userSpaceOnUse" x="33" y="343" width="132" height="115">
<path d="M164.807 343.324H33.9789V457.971H164.807V343.324Z" fill="white"/>
</mask>
<g mask="url(#mask0_406_620)">
<path d="M132.797 378.24C130.402 376.866 127.338 376.866 124.628 378.24L105.54 389.552L92.5789 396.739L73.844 408.012C71.4484 409.387 68.3849 409.387 65.6747 408.012L51.0248 399.096C48.6288 397.722 46.9402 394.972 46.9402 391.909V374.784C46.9402 372.035 48.3146 369.325 51.0248 367.597L65.6747 359.034C68.0707 357.66 71.1342 357.66 73.844 359.034L88.4943 367.95C90.8899 369.325 92.5789 372.074 92.5789 375.138V386.449L105.54 378.908V367.282C105.54 364.533 104.165 361.823 101.455 360.095L74.1977 343.992C71.8016 342.617 68.7382 342.617 66.0284 343.992L38.103 360.448C35.3929 361.823 34.0182 364.573 34.0182 367.282V399.45C34.0182 402.199 35.3929 404.909 38.103 406.637L65.7138 422.74C68.1098 424.115 71.1733 424.115 73.8835 422.74L92.618 411.782L105.579 404.241L124.314 393.283C126.71 391.909 129.773 391.909 132.483 393.283L147.133 401.846C149.529 403.22 151.218 405.969 151.218 409.033V426.157C151.218 428.907 149.843 431.617 147.133 433.345L132.837 441.907C130.441 443.282 127.377 443.282 124.667 441.907L109.978 433.345C107.582 431.97 105.893 429.221 105.893 426.157V415.199L92.9322 422.74V434.052C92.9322 436.801 94.307 439.511 97.0168 441.239L124.628 457.343C127.024 458.717 130.087 458.717 132.797 457.343L160.408 441.239C162.804 439.865 164.493 437.116 164.493 434.052V401.531C164.493 398.782 163.119 396.072 160.408 394.344L132.797 378.24Z" fill="white"/>
</g>
</g>
<circle cx="100" cy="400" r="97.5" stroke="black" stroke-width="5"/>
<defs>
<clipPath id="clip0_406_620">
<rect width="500" height="500" rx="250" fill="white"/>
</clipPath>
<clipPath id="clip1_406_620">
<rect width="500" height="500" fill="white"/>
</clipPath>
<clipPath id="clip2_406_620">
<rect width="200" height="200" fill="white" transform="translate(0 300)"/>
</clipPath>
</defs>
</svg>
